X:306
T:B306-  Maying Time
S:(2nd/2)
Q:1/4=120
L:1/4
M:C|
K:F
A3/2 c/d2|A/B/cA2|A/B/c/A/ B/A/G/F/|G3/2 F/F2||\
A/B/c/A/d2|A/G/c/A/G2|A/B/c/A/ d/c/B/A/|Gf3/4e/4f2|]

